build/images/accordion-btn.svg

<svg width="28" height="28" viewBox="0 0 28 28" fill="none" xmlns="http://www.w3.org/2000/svg">
<path d="M0 13.2054H9.40901C9.66171 13.1205 9.91046 13.0297 10.1572 12.927C10.7605 12.6951 11.3095 12.3414 11.7701 11.8879C12.2307 11.4345 12.5929 10.891 12.8342 10.2915C12.9724 9.95784 13.0929 9.61433 13.2054 9.26884V0H14.7847V9.47613C14.8203 9.58274 14.8499 9.68935 14.8874 9.79398C15.1278 10.5547 15.5449 11.2477 16.1046 11.8162C16.6642 12.3848 17.3505 12.8128 18.1073 13.0652C18.2613 13.1205 18.4192 13.162 18.5732 13.2133H28V14.7926H18.6364C18.5495 14.8223 18.4607 14.844 18.3738 14.8736C17.6092 15.1141 16.9008 15.5062 16.2911 16.0265C15.5922 16.6583 15.1717 17.4637 14.8617 18.3363L14.7946 18.5337V28H13.2153V18.7213C13.1541 18.5337 13.0968 18.3442 13.0178 18.1567C12.7838 17.4501 12.3946 16.8048 11.8788 16.2681C11.363 15.7315 10.7336 15.317 10.0368 15.0552C9.80385 14.9624 9.56695 14.8795 9.32807 14.8025H0V13.2054Z" fill="white"/>
</svg>

<svg width="28" height="28" fill="none" xmlns="http://www.w3.org/2000/svg"><path d="M0 13.205h9.409c.253-.085.501-.175.748-.278a4.705 4.705 0 002.677-2.636c.138-.333.259-.677.371-1.022V0h1.58v9.476c.035.107.065.213.102.318a5.052 5.052 0 003.22 3.271c.154.056.312.097.466.148H28v1.58h-9.364c-.087.03-.175.051-.262.08a5.966 5.966 0 00-2.083 1.153c-.699.632-1.12 1.438-1.43 2.31l-.066.198V28h-1.58v-9.279c-.06-.187-.118-.377-.197-.564a4.99 4.99 0 00-2.981-3.102 11.05 11.05 0 00-.709-.252H0v-1.598z" fill="#fff"/></svg>
